X:4108
T:S-Locomotion
P:Forbes Morrison
C:J. Scott Skinner
R:Strathspey (4x32)
B:RSCDS 41-8
Z:Anselm Lingnau <anselm@strathspey.org>
M:4/4
L:1/8
K:A
|:d|"A"c<A E>D C>E "A/C#"A,>C|"Bm/D"D2 B>A "E7"(3Gfe (3dcB|\
    "A"c<A E>D C>E "A/C#"A,>C|
                              "Bm/D"(3DFB "E"(3GEG "F#m"(3Afe "E7/G#"dcB|\
    "A"c<A E>D C>E "A/C#"A,>C|"Bm/D"D2 B>A "E7"(3Gfe (3dcB|
    "A"c<A E>D C>E "A/C#"A,>C|"Bm/D"(3DFB "E"(3GEG "A"A2 A||\
  g|"F#m"a>f "E"g>e "D"f<d "A/C#"e>c|
                                     "Bm"d>B "A"c>A "E7"(3Bcd (3efg|\
    "F#m"a>f "C#m/E"g>e "D"f<d "A/C#"e>A|"E7/B"(3Bgf "E7"(3dcB "A"A2 A>g|
    "F#m"(3afa "E"(3geg "D"(3fdf "A/C#"(3ece|"Bm"(3dBd "A"(3cAc "E7"(3Bcd (3efg|
    "A"(3aga (3efg (3aed "A/C#"(3cBA|1"E7"(3Gfe (3dcB "A"A2 A:|2"E7"(3GFE (3DCB, "A"A,2 A,|]

